!!!OTL: UNTER MEINES VATERS SEINEM FENSTER
!!!ARE: Europa, Mitteleuropa, Deutschland, Thueringen; Schlesien
!!!SCT: E0523
!!!YEM: Copyright 1995, estate of Helmut Schaffrath.
**kern
*ICvox
*Ivox
*M3/4
*k[b-]
*F:
{8f
8a
=1
8cc
8a
8cc
8a
8cc
8a
=2
8cc
8ff
4a}
{8dd
8cc
=3
8cc
8b-
8b-
8g
8e
8g
=4
4g
4f}
{8a
8a
=5
8cc
8b-
4b-
8g
8g
=6
8dd
8cc
4cc}
{8a
8a
=7
8cc
8b-
4b-
8g
8g
=8
8dd
8cc
4cc}
{8a
8b-
=9
8cc
8a
8cc
8a
8cc
8a
=10
8cc
8ff
4a}
{8dd
8cc
=11
8cc
8b-
8b-
8g
8e
8g
=12
4g
4f}
==
!!!AGN: Liebes - Lied
!!!ONB: ESAC (Essen Associative Code) Database: ERK1
!!!AMT: simple triple
!!!AIN: vox
!!!EED: Helmut Schaffrath
!!!EEV: 1.0
*-
